docs/statics/ultil-logo-large-L.svg

<?xml version="1.0" encoding="UTF-8" standalone="no"?>
<!-- Created with Inkscape (http://www.inkscape.org/) -->

<svg
   xmlns:dc="http://purl.org/dc/elements/1.1/"
   xmlns:cc="http://creativecommons.org/ns#"
   xmlns:rdf="http://www.w3.org/1999/02/22-rdf-syntax-ns#"
   xmlns:svg="http://www.w3.org/2000/svg"
   xmlns="http://www.w3.org/2000/svg"
   xmlns:sodipodi="http://sodipodi.sourceforge.net/DTD/sodipodi-0.dtd"
   xmlns:inkscape="http://www.inkscape.org/namespaces/inkscape"
   width="16"
   height="16"
   viewBox="0 0 4.2333332 4.2333334"
   version="1.1"
   id="svg8"
   inkscape:version="0.92.2 (5c3e80d, 2017-08-06)"
   sodipodi:docname="Ultil-Logo-3-0-L-release.svg"
   inkscape:export-filename="A:\Ultil-Logo-3-0-release.png"
   inkscape:export-xdpi="3072.0002"
   inkscape:export-ydpi="3072.0002">
  <defs
     id="defs2" />
  <sodipodi:namedview
     id="base"
     pagecolor="#ffffff"
     bordercolor="#666666"
     borderopacity="1.0"
     inkscape:pageopacity="0.0"
     inkscape:pageshadow="2"
     inkscape:zoom="55.625"
     inkscape:cx="-0.71910116"
     inkscape:cy="8"
     inkscape:document-units="mm"
     inkscape:current-layer="layer4"
     showgrid="true"
     units="px"
     inkscape:window-width="1802"
     inkscape:window-height="1057"
     inkscape:window-x="110"
     inkscape:window-y="-8"
     inkscape:window-maximized="1"
     showguides="true"
     inkscape:snap-grids="true">
    <inkscape:grid
       type="xygrid"
       id="grid815"
       empspacing="4"
       spacingx="0.26458333"
       spacingy="0.26458333"
       visible="true" />
  </sodipodi:namedview>
  <metadata
     id="metadata5">
    <rdf:RDF>
      <cc:Work
         rdf:about="">
        <dc:format>image/svg+xml</dc:format>
        <dc:type
           rdf:resource="http://purl.org/dc/dcmitype/StillImage" />
        <dc:title></dc:title>
      </cc:Work>
    </rdf:RDF>
  </metadata>
  <g
     inkscape:groupmode="layer"
     id="layer4"
     inkscape:label="L"
     style="display:inline">
    <path
       sodipodi:nodetypes="ccccccc"
       style="display:inline;fill:#6be2ff;fill-opacity:1;stroke:none;stroke-width:0.26458332px;stroke-linecap:butt;stroke-linejoin:miter;stroke-opacity:1"
       d="m 1.8520833,0.26458 h -0.79375 V 3.17501 H 3.175 V 2.38126 H 1.8520833 Z"
       id="path821"
       inkscape:connector-curvature="0" />
    <path
       style="display:inline;fill:#55ddff;fill-opacity:1;stroke:none;stroke-width:0.26458332px;stroke-linecap:butt;stroke-linejoin:miter;stroke-opacity:1"
       d="m 1.0583333,0.26458323 c 0.091046,0.0815401 0.241247,0.0250533 0.2645834,0.26458332 V 2.9104166 C 1.3102014,3.1495693 1.1650544,3.1238588 1.0583333,3.175 Z"
       id="path865"
       inkscape:connector-curvature="0"
       sodipodi:nodetypes="ccccc" />
    <path
       style="display:inline;fill:#2ad4ff;fill-opacity:1;stroke:none;stroke-width:0.26458332px;stroke-linecap:butt;stroke-linejoin:miter;stroke-opacity:1"
       d="M 1.8520833,0.26458338 C 1.7509518,0.33552834 1.6185155,0.36473368 1.5875,0.52916671 V 2.6458333 C 1.6977077,2.595376 1.8263698,2.5765546 1.8520833,2.38125 Z"
       id="path867"
       inkscape:connector-curvature="0"
       sodipodi:nodetypes="ccccc" />
    <path
       style="display:inline;fill:#80e5ff;fill-opacity:1;stroke:none;stroke-width:0.26458332px;stroke-linecap:butt;stroke-linejoin:miter;stroke-opacity:1"
       d="M 1.8520833,0.26458338 1.5875,0.52916671 H 1.3229166 L 1.0583333,0.26458338 Z"
       id="path869"
       inkscape:connector-curvature="0" />
    <path
       style="display:inline;fill:#55ddff;fill-opacity:1;stroke:none;stroke-width:0.26458332px;stroke-linecap:butt;stroke-linejoin:miter;stroke-opacity:1"
       d="M 1.5875,2.6458333 1.8520833,2.38125 H 3.175 C 3.1124753,2.4925472 3.0914547,2.6411981 2.9104166,2.6458333 Z"
       id="path871"
       inkscape:connector-curvature="0"
       sodipodi:nodetypes="ccccc" />
    <path
       style="display:inline;fill:#00aad4;fill-opacity:1;stroke:none;stroke-width:0.26458332px;stroke-linecap:butt;stroke-linejoin:miter;stroke-opacity:1"
       d="M 3.175,3.175 C 3.0969849,3.0359085 3.0136018,2.9236576 2.9104166,2.9104166 h -1.5875 L 1.0583333,3.175 Z"
       id="path875"
       inkscape:connector-curvature="0"
       sodipodi:nodetypes="ccccc" />
    <path
       style="display:inline;fill:#2ad4ff;fill-opacity:1;stroke:none;stroke-width:0.26458332px;stroke-linecap:butt;stroke-linejoin:miter;stroke-opacity:1"
       d="M 3.175,3.175 V 2.38125 L 2.9104166,2.6458333 v 0.2645833 z"
       id="path885"
       inkscape:connector-curvature="0" />
  </g>
</svg>

<?xml version="1.0" encoding="UTF-8"?>
<svg width="512" height="512" version="1.1" viewBox="0 0 4.2333 4.2333" xmlns="http://www.w3.org/2000/svg">
 <g>
  <path d="m1.8521 0.26458h-0.79375v2.9104h2.1167v-0.79375h-1.3229z" fill="#6be2ff"/>
  <path d="m1.0583 0.26458c0.091046 0.08154 0.24125 0.025053 0.26458 0.26458v2.3813c-0.012715 0.23915-0.15786 0.21344-0.26458 0.26458z" fill="#5df"/>
  <path d="m1.8521 0.26458c-0.10113 0.070945-0.23357 0.10015-0.26458 0.26458v2.1167c0.11021-0.050457 0.23887-0.069279 0.26458-0.26458z" fill="#2ad4ff"/>
  <path d="m1.8521 0.26458-0.26458 0.26458h-0.26458l-0.26458-0.26458z" fill="#80e5ff"/>
  <path d="m1.5875 2.6458 0.26458-0.26458h1.3229c-0.062525 0.1113-0.083545 0.25995-0.26458 0.26458z" fill="#5df"/>
  <path d="m3.175 3.175c-0.078015-0.13909-0.1614-0.25134-0.26458-0.26458h-1.5875l-0.26458 0.26458z" fill="#00aad4"/>
  <path d="m3.175 3.175v-0.79375l-0.26458 0.26458v0.26458z" fill="#2ad4ff"/>
 </g>
</svg>
